!!!OTL: Herr von Falkenstein.
!!!OTL-incipit: Ick sah mynen Heern von Falkensteen
!!!ARE: Europa, Mitteleuropa, Deutschland (BRD), Westfalen, Steinhagen
!!!YOR: 1, S. 224
!!    1840 aufgezeichnet
!!!SCT: Q0021A
!!!YEM: Copyright 1995, estate of Helmut Schaffrath.
**kern	**text
*ICvox	*
*M4/4	*
*met(c)	*
*k[b-e-]	*
*g:	*
{4dd	Jck
=1	=1
4dd	ſah
8cc	my-
8b-	-nen
4.a	Heern
8dd	von
=2	=2
4dd	Fal-
8ccL	-kenſteen
8b-J	.
4.a}	.
{8cc	to
=3	=3
4b-	ſy-
4a	-ner
4g	Burg
4g	up
=4	=4
2f#	rie-
4.g}	-den,
{8g	en
=5	=5
4a	Schild
4b-	hat
4.cc	he
8a	in
=6	=6
4b-	ſy-
4cc	-ner
4.dd}	Hand,
{8cc	en
=7	=7
4b-	Schwert
4a	an
4g	ſi-
4g	-ner
=8	=8
2f#	Sie-
4g}	-den.
==	==
!!!AGN: Ballade, Gefangenschaft, Ehe, Befreiung
!!!ONB: ESAC (Essen Associative Code) Database: BALLADE
!!!AMT: simple quadruple
!!!AIN: vox
!!!EED: Helmut Schaffrath
!!!EEV: 1.0
!!!source: Deutsche Volkslieder mit ihren Melodien. Balladen. Herausgegeben vom Deutschen Volksliedarchiv. Erster Band Balladen. Berlin und Leipzig 1935.
!!!page: 224
!!!ENC: Anna Maria Matuszewska
!!!EEV: 2025/02/14
*-	*-
